X: 9358
T: Dancing In Allihies
R: reel
M: 4/4
K: Eminor
|:e2 dB e2 dB|e2 dB A2 (3ABc|d2 BA BE E2|F2 BA dBAF|
EFed B3d|e2 dB A2 Be|d2 BA BE E2|F2 BA FE E2:|
|:edfd edfd|e2 de B3e|d2 BA BE E2|F2 BA dBAF|
EFed fded|e2 de B3e|d2 BA BE E2|F2 BA FE E2|
edfd edfd|e2 de B3e|d2 BA BE E2|F2 BA d^cde|
f3b afea|f2 ed ed (3Bcd|f2 ed edBA|FdBA FE E2||

